modules/micon/icons/PuncKey5.svg

<svg xmlns="http://www.w3.org/2000/svg" viewBox="0 0 2361 1024"><path d="M0 520.5v-41l372-207v52.5l-320.5 175.5v1l320.5 173.5v52.5zm1988.5-248l372.5 206v43.5l-372.5 205.5v-52.5l322.5-173.5v-1l-322.5-175.5v-52.5zm-837.5-100h45l166.5 391.5h-50l-138.5-336.5h-1.5l-138.5 336.5h-48.5z"/></svg>

<svg xmlns="http://www.w3.org/2000/svg" viewBox="0 0 2361 1024"><path d="M0 520.5v-41l372-207V325L51.5 500.5v1L372 675v52.5zm1988.5-248l372.5 206V522l-372.5 205.5V675L2311 501.5v-1L1988.5 325v-52.5zm-837.5-100h45L1362.5 564h-50L1174 227.5h-1.5L1034 564h-48.5z"/></svg>
